packages/kaspersky-hexa-ui-icons/src/iconsSVGs/16/Sensor.svg

<svg width="16" height="16" viewBox="0 0 16 16" fill="none" xmlns="http://www.w3.org/2000/svg">
<path d="M3.79177 4.34968L3.78614 4.35406C3.77926 4.35947 3.76655 4.36966 3.74883 4.38467C3.71336 4.41472 3.65807 4.46388 3.58943 4.53246C3.4519 4.66987 3.26249 4.88352 3.0714 5.17601C2.69168 5.7572 2.30049 6.65597 2.30049 7.90989C2.30049 9.16381 2.69168 10.0626 3.0714 10.6438C3.26249 10.9363 3.4519 11.1499 3.58943 11.2873C3.65807 11.3559 3.71336 11.4051 3.74883 11.4351C3.76655 11.4501 3.77926 11.4603 3.78614 11.4657L3.79178 11.4701C4.07836 11.6831 4.13962 12.0878 3.92815 12.3762C3.71586 12.6656 3.30908 12.7282 3.0196 12.5159C3.01975 12.516 3.02052 12.515 3.06757 12.4507L3.4011 11.9957L3.0196 12.5159L3.01846 12.5151L3.01715 12.5141L3.01406 12.5118L3.00596 12.5057L2.98247 12.4875C2.96367 12.4728 2.9387 12.4526 2.90847 12.427C2.84804 12.3758 2.76634 12.3026 2.6706 12.207C2.47934 12.0159 2.23037 11.7333 1.98309 11.3548C1.48605 10.594 1.00049 9.45188 1.00049 7.90989C1.00049 6.3679 1.48605 5.22574 1.98309 4.46497C2.23037 4.08648 2.47934 3.8039 2.6706 3.61282C2.76634 3.51716 2.84804 3.444 2.90847 3.39281C2.9387 3.36719 2.96367 3.34703 2.98247 3.33224L3.00596 3.31406L3.01406 3.30797L3.01715 3.30567L3.01846 3.30471C3.01874 3.3045 3.0196 3.30387 3.404 3.82802L3.0196 3.30387C3.30908 3.09157 3.71586 3.15414 3.92815 3.44363C4.13962 3.73198 4.07836 4.13671 3.79177 4.34968Z" fill="black"/>
<path d="M12.2084 11.6501L12.2141 11.6457C12.221 11.6403 12.2337 11.6301 12.2514 11.6151C12.2868 11.5851 12.3421 11.5359 12.4108 11.4673C12.5483 11.3299 12.7377 11.1163 12.9288 10.8238C13.3085 10.2426 13.6997 9.34381 13.6997 8.08989C13.6997 6.83596 13.3085 5.93719 12.9288 5.356C12.7377 5.06352 12.5483 4.84986 12.4108 4.71246C12.3421 4.64387 12.2868 4.59471 12.2514 4.56466C12.2337 4.54965 12.221 4.53946 12.2141 4.53405L12.2084 4.52967C11.9218 4.3167 11.8606 3.91197 12.0721 3.62362C12.2844 3.33414 12.6911 3.27156 12.9806 3.48386C12.9805 3.48376 12.9805 3.48376 12.9325 3.5492L12.5988 4.00448L12.9806 3.48386L12.9818 3.4847L12.9831 3.48566L12.9862 3.48796L12.9942 3.49405L13.0177 3.51223C13.0365 3.52702 13.0615 3.54719 13.0917 3.5728C13.1522 3.624 13.2339 3.69715 13.3296 3.79281C13.5209 3.98389 13.7698 4.26647 14.0171 4.64496C14.5142 5.40573 14.9997 6.5479 14.9997 8.08989C14.9997 9.63187 14.5142 10.774 14.0171 11.5348C13.7698 11.9133 13.5209 12.1959 13.3296 12.387C13.2339 12.4826 13.1522 12.5558 13.0917 12.607C13.0615 12.6326 13.0365 12.6528 13.0177 12.6675L12.9942 12.6857L12.9862 12.6918L12.9831 12.6941L12.9818 12.6951C12.9815 12.6953 12.9806 12.6959 12.5962 12.1718L12.9806 12.6959C12.6911 12.9082 12.2844 12.8456 12.0721 12.5562C11.8606 12.2678 11.9218 11.8631 12.2084 11.6501Z" fill="black"/>
<path d="M5.37339 9.22682C5.2953 9.16001 4.84779 8.74296 4.84779 7.90981C4.84779 7.07666 5.2953 6.65961 5.37339 6.5928C5.64616 6.35942 5.67809 5.9491 5.44471 5.67633C5.21133 5.40356 4.80101 5.37163 4.52824 5.60501C4.29 5.80884 3.54779 6.55514 3.54779 7.90981C3.54779 9.26448 4.29 10.0108 4.52824 10.2146C4.80101 10.448 5.21133 10.4161 5.44471 10.1433C5.67809 9.87052 5.64616 9.4602 5.37339 9.22682Z" fill="black"/>
<path d="M11.1524 8.08986C11.1524 7.25502 10.703 6.83792 10.6264 6.77248C10.3533 6.5394 10.321 6.12912 10.554 5.85609C10.7871 5.58307 11.1974 5.55069 11.4704 5.78377C11.7071 5.98584 12.4524 6.73237 12.4524 8.08986C12.4524 9.44734 11.7071 10.1939 11.4704 10.3959C11.1974 10.629 10.7871 10.5967 10.554 10.3236C10.321 10.0506 10.3533 9.64032 10.6264 9.40724C10.703 9.34179 11.1524 8.9247 11.1524 8.08986Z" fill="black"/>
<path d="M7.99974 9.72634C8.95318 9.72634 9.7261 8.95342 9.7261 7.99998C9.7261 7.04654 8.95318 6.27362 7.99974 6.27362C7.04629 6.27362 6.27338 7.04654 6.27338 7.99998C6.27338 8.95342 7.04629 9.72634 7.99974 9.72634Z" fill="black"/>
</svg>

<svg xmlns="http://www.w3.org/2000/svg" width="16" height="16" fill="none" viewBox="0 0 16 16"><path fill="#000" fill-rule="evenodd" d="m3.7917 4.3497-.0057.0044a1 1 0 0 0-.0373.0306 2.7 2.7 0 0 0-.1594.1478c-.1375.1374-.327.351-.518.6435-.3797.5812-.771 1.48-.771 2.7339s.3913 2.1527.771 2.7339c.191.2925.3805.5061.518.6435.0686.0686.124.1178.1594.1478a1 1 0 0 0 .0373.0306l.0057.0044a.65.65 0 0 1-.7722 1.0458 2 2 0 0 0 .048-.0652l.3335-.455-.3815.5202-.0012-.0008-.0013-.001-.003-.0023-.0081-.0061-.0236-.0182a3 3 0 0 1-.074-.0605 4 4 0 0 1-.2378-.22c-.1913-.1911-.4403-.4737-.6875-.8522-.497-.7608-.9826-1.903-.9826-3.4449s.4855-2.6842.9826-3.445c.2472-.3784.4962-.661.6875-.852a4 4 0 0 1 .2378-.2201 3 3 0 0 1 .074-.0606l.0236-.0181.008-.0061.0031-.0023.0013-.001c.0003-.0002.0012-.0008.3854.5231l-.3842-.524a.65.65 0 0 1 .7722 1.0459m8.4222 7.296-.0056.0044a.6501.6501 0 0 0 .7722 1.0458l-.3842-.5238c.3842.5238.385.5232.3853.523l.0013-.001.0031-.0023.0081-.0061.0235-.0182a3 3 0 0 0 .074-.0605 4 4 0 0 0 .2379-.22c.1912-.1911.4402-.4737.6875-.8522.497-.7608.9826-1.903.9826-3.445s-.4856-2.684-.9826-3.4448c-.2473-.3785-.4963-.6611-.6875-.8522a4 4 0 0 0-.2379-.22 3 3 0 0 0-.074-.0606l-.0235-.0181-.0081-.0061-.0031-.0023-.0013-.001-.0011-.0008a.65.65 0 0 0-.7722 1.0458l.0056.0043a2 2 0 0 1 .0373.0307c.0355.03.0908.0792.1595.1478.1375.1374.3269.351.518.6435.3797.5812.7709 1.48.7709 2.7339s-.3912 2.1527-.7709 2.7339c-.1911.2925-.3805.5061-.518.6435a2.7 2.7 0 0 1-.1595.1478 1 1 0 0 1-.0373.0306m.7666-8.1618-.3818.5206.3337-.4553c.0472-.0644.0479-.0654.0481-.0653m-7.6072 5.743c-.0781-.0669-.5256-.484-.5256-1.317 0-.8332.4475-1.2503.5256-1.3171a.65.65 0 0 0-.8452-.9878c-.2382.2038-.9804.9501-.9804 2.3048s.7422 2.101.9804 2.3048a.65.65 0 1 0 .8452-.9878m5.2529-2.4544c.0767.0654.5261.4825.5261 1.3174s-.4494 1.2519-.5261 1.3173a.65.65 0 0 0 .8441.9888c.2367-.2021.982-.9487.982-2.3061 0-1.3575-.7453-2.104-.982-2.3061a.65.65 0 1 0-.8441.9887M7.9996 9.7263c.9535 0 1.7264-.7729 1.7264-1.7263 0-.9535-.773-1.7264-1.7264-1.7264S6.2733 7.0466 6.2733 8s.7729 1.7263 1.7263 1.7263"/></svg>
